X: 38405
T: Star Of Munster, The
R: reel
M: 4/4
K: Gdorian
G3 F||DGGF G2 GA|BdAB GFDE|F2 cF dFcF|DFFF FDCF|
DGGG GGGA|BGGF GFDE|F2 cF dFcF|cdcA GAGF||
DGGF GGGA|F2 cF dFcF|F2 CF DFCF|DFFF FDCF|
DGGG GGGA|BGGF GFDE|F2 cF dFcF|cdcA GA=Bc||
dggg ggga|{/b} ag g^f gfde|fffg ^fede|^fg{/a} gf gfdc|
dgg^f ggga|{/b} ag g^f gfde|fffd dcAG|FdcA GA (3=Bcd||
dggg ggga|{/b} ag g^f gfde|fffg ^fede|^fg{/a} gf gfdc|
dggg dg=bg|gg=bg g^fde|fefd dcAG|cdcA G2 GF||

